X:1
T:Round: The Bell Doth Toll
L:1/8
Q:1/4=120
M:4/4
I:linebreak $
K:F
V:1 treble 
V:1
"^Slowly""^1" c2 | A3 B c2 c2 | A3 B c2 d2 | c2 B2 A2 G2 | A6 ||"^2" A2 | F3 G AAAA |$ F3 G AABB | %8
w: The|bell doth toll, Its|ech- oes roll, I|know the sound full|well;|I|love its ring- ing, For it|calls to sing- ing, With its|
 A2 G2 F2 E2 | F6"^3" z2 | F6 z2 | F6 z2 | F4 C4 | F6 |] %14
w: bim, bim, bim, bom,|bell,|Bim|bom,|bim, bom,|bell.|
